packages/backend.ai-ui/src/icons/URLStart.svg

<?xml version="1.0" encoding="UTF-8"?>
<svg  fill="none" version="1.1" viewBox="0 0 24 24" xmlns="http://www.w3.org/2000/svg">
 <g id="Start Icon" stroke="#00BD9B" stroke-linecap="round" stroke-linejoin="round" stroke-width="2">
  <path id="Vector" d="m10 13c0.4295 0.5741 0.9774 1.0491 1.6066 1.3929 0.6291 0.3438 1.3249 0.5482 2.0401 0.5994 0.7151 0.0512 1.4329-0.052 2.1046-0.3026 0.6718-0.2505 1.2818-0.6427 1.7887-1.1497l3-3c0.9108-0.94305 1.4148-2.2061 1.4034-3.517s-0.5373-2.565-1.4643-3.4921-2.1811-1.4529-3.4921-1.4643c-1.311-0.0114-2.574 0.49258-3.517 1.4034l-1.72 1.71"/>
  <path d="m14 11c-0.4295-0.5741-0.9774-1.0492-1.6066-1.3929-0.6292-0.34376-1.325-0.54818-2.0401-0.5994-0.71514-0.05122-1.4329 0.05197-2.1047 0.30255-0.67176 0.25059-1.2818 0.64272-1.7886 1.1498l-3 3c-0.91079 0.943-1.4148 2.206-1.4034 3.517 0.01139 1.311 0.53723 2.5651 1.4643 3.4921 0.92704 0.9271 2.1811 1.4529 3.4921 1.4643s2.574-0.4926 3.517-1.4034l1.71-1.71"/>
 </g>
</svg>

<svg width="24" height="24" viewBox="0 0 24 24" fill="none" xmlns="http://www.w3.org/2000/svg">
<path d="M10 13C10.4295 13.5741 10.9774 14.0491 11.6066 14.3929C12.2357 14.7367 12.9315 14.9411 13.6467 14.9923C14.3618 15.0435 15.0796 14.9403 15.7513 14.6897C16.4231 14.4392 17.0331 14.047 17.54 13.54L20.54 10.54C21.4508 9.59695 21.9548 8.33394 21.9434 7.02296C21.932 5.71198 21.4061 4.45791 20.4791 3.53087C19.5521 2.60383 18.298 2.07799 16.987 2.0666C15.676 2.0552 14.413 2.55918 13.47 3.46997L11.75 5.17997" stroke="currentColor" stroke-width="2" stroke-linecap="round" stroke-linejoin="round" fill="transparent"/>
<path d="M14.0002 11.0002C13.5707 10.4261 13.0228 9.95104 12.3936 9.60729C11.7645 9.26353 11.0687 9.05911 10.3535 9.00789C9.63841 8.95667 8.92061 9.05986 8.24885 9.31044C7.5771 9.56103 6.96709 9.95316 6.4602 10.4602L3.4602 13.4602C2.54941 14.4032 2.04544 15.6662 2.05683 16.9772C2.06822 18.2882 2.59407 19.5423 3.52111 20.4693C4.44815 21.3964 5.70221 21.9222 7.01319 21.9336C8.32418 21.945 9.58719 21.441 10.5302 20.5302L12.2402 18.8202" stroke="currentColor" stroke-width="2" stroke-linecap="round" stroke-linejoin="round" fill="transparent"/>
</svg>
